startshape ctt_test_fontmap_start
// tile { s 3 } // best viewing, but it gets inherited up and can't be overridden (like background)
include ctt_fontmap_default.cfdg

// This test requires a ctt_fontmap file (with included font) to function - it is meant to be included in fontmap files, not run on its own

rule ctt_test_fontmap_start .0000001 {
	          SQUARE { x -1 z -1       b  1 a   1   } //white bg 
	ctt_test_fontmap { x -1      s .5 }
	          SQUARE { x  0 z -1       b -1 a   1   } //black bg 
	ctt_test_fontmap { x  0      s .5 }
	          SQUARE { x  1 z -1       b -1 a  -0.5 } //trans bg
	ctt_test_fontmap { x  1      s .5 }
}

rule ctt_object_bg .0000001 {
	SQUARE { s 1 .01 y  .5 }
	SQUARE { s .01 1 x  .5 }
	SQUARE { s 1 .01 y -.5 }
	SQUARE { s .01 1 x -.5 }

//	SQUARE { s 1   z -1 b -1 sat 1 hue 0 }
//	SQUARE { s 0.9 z -1 b -1 sat 1 hue 0 }
}  

rule ctt_test_fontmap .0000001 {
	ctt_test_fontmap_letters { x -0.5 y +0.5  s .15  b -1 sat -1 }
                         B { x -0.9 y  0    s .07 b -1 sat -1 }
                     NUM_0 { x -0.8 y  0    s .07 b -1 sat -1 }
                         S { x -0.6 y  0    s .07 b -1 sat -1 }
                         A { x -0.5 y  0    s .07 b -1 sat -1 }
                         T { x -0.4 y  0    s .07 b -1 sat -1 }
                     NUM_0 { x -0.3 y  0    s .07 b -1 sat -1 }
	ctt_test_fontmap_letters { x  0.5 y +0.5  s .15 b  1 sat -1 }
                         B { x  0.1 y  0    s .07 b  1 sat -1 }
                     NUM_1 { x  0.2 y  0    s .07 b  1 sat -1 }
                         S { x  0.4 y  0    s .07 b  1 sat -1 }
                         A { x  0.5 y  0    s .07 b  1 sat -1 }
                         T { x  0.6 y  0    s .07 b  1 sat -1 }
                     NUM_0 { x  0.7 y  0    s .07 b  1 sat -1 }
	ctt_test_fontmap_letters { x -0.5 y -0.5  s .15 b -1 sat  1 }
                         B { x -0.9 y -0.95 s .07 b -1 sat  1 }
                     NUM_0 { x -0.8 y -0.95 s .07 b -1 sat  1 }
                         S { x -0.6 y -0.95 s .07 b -1 sat  1 }
                         A { x -0.5 y -0.95 s .07 b -1 sat  1 }
                         T { x -0.4 y -0.95 s .07 b -1 sat  1 }
                     NUM_1 { x -0.3 y -0.95 s .07 b -1 sat  1 }
	ctt_test_fontmap_letters { x  0.5 y -0.5  s .15 b  1 sat  1 }
                         B { x  0.1 y -0.95 s .07 b  1 sat  1 }
                     NUM_1 { x  0.2 y -0.95 s .07 b  1 sat  1 }
                         S { x  0.4 y -0.95 s .07 b  1 sat  1 }
                         A { x  0.5 y -0.95 s .07 b  1 sat  1 }
                         T { x  0.6 y -0.95 s .07 b  1 sat  1 }
                     NUM_1 { x  0.7 y -0.95 s .07 b  1 sat  1 }
}

rule ctt_test_fontmap_letters .0000001 {
	A { s .9 x -2.5 y  2 sat   0 hue   0 }
	B { s .9 x -1.5 y  2 sat   0 hue  60 }
	C { s .9 x -0.5 y  2 sat   0 hue 120 }
	D { s .9 x  0.5 y  2 sat   0 hue 180 }
	E { s .9 x  1.5 y  2 sat   0 hue 240 }
	F { s .9 x -2.5 y  1 sat -.2 hue   0 }
	G { s .9 x -1.5 y  1 sat -.2 hue  60 }
	H { s .9 x -0.5 y  1 sat -.2 hue 120 }
	I { s .9 x  0.5 y  1 sat -.2 hue 180 }
	J { s .9 x  1.5 y  1 sat -.2 hue 240 }
	K { s .9 x -2.5 y  0 sat -.4 hue   0 }
	L { s .9 x -1.5 y  0 sat -.4 hue  60 }
	M { s .9 x -0.5 y  0 sat -.4 hue 120 }
	N { s .9 x  0.5 y  0 sat -.4 hue 180 }
	O { s .9 x  1.5 y  0 sat -.4 hue 240 }
	P { s .9 x -2.5 y -1 sat -.6 hue   0 }
	Q { s .9 x -1.5 y -1 sat -.6 hue  60 }
	R { s .9 x -0.5 y -1 sat -.6 hue 120 }
	S { s .9 x  0.5 y -1 sat -.6 hue 180 }
	T { s .9 x  1.5 y -1 sat -.6 hue 240 }
	U { s .9 x -2.5 y -2 sat -.8 hue   0 }
	V { s .9 x -1.5 y -2 sat -.8 hue  60 }
	W { s .9 x -0.5 y -2 sat -.8 hue 120 }
	X { s .9 x  0.5 y -2 sat -.8 hue 180 }
	Y { s .9 x  1.5 y -2 sat -.8 hue 240 }
	Z { s .9 x  2.5 y -2 sat -.8 hue 240 }
}